mobile/20/svg/tab-badge-fill-20.svg

<svg width="20" height="20" fill="none" xmlns="http://www.w3.org/2000/svg"><path d="M14.75 5c.966 0 1.75.784 1.75 1.75v6.5A1.75 1.75 0 0 1 14.75 15h-9.5a1.75 1.75 0 0 1-1.75-1.75v-6.5C3.5 5.784 4.284 5 5.25 5h9.5zm0-1.5h-9.5A3.254 3.254 0 0 0 2 6.75v6.5a3.254 3.254 0 0 0 3.25 3.25h9.5A3.254 3.254 0 0 0 18 13.25v-6.5a3.254 3.254 0 0 0-3.25-3.25z" fill="#fff"/><path d="M14.75 5h-9.5A1.75 1.75 0 0 0 3.5 6.75v6.5c0 .966.784 1.75 1.75 1.75h9.5a1.75 1.75 0 0 0 1.75-1.75v-6.5A1.75 1.75 0 0 0 14.75 5z" fill="#000"/></svg>

<svg width="20" height="20" viewBox="0 0 20 20" fill="none" xmlns="http://www.w3.org/2000/svg">
<path d="M14.75 5C15.716 5 16.5 5.784 16.5 6.75V13.25C16.5 14.216 15.716 15 14.75 15H5.25C4.284 15 3.5 14.216 3.5 13.25V6.75C3.5 5.784 4.284 5 5.25 5H14.75ZM14.75 3.5H5.25C3.458 3.5 2 4.958 2 6.75V13.25C2 15.042 3.458 16.5 5.25 16.5H14.75C16.542 16.5 18 15.042 18 13.25V6.75C18 4.958 16.542 3.5 14.75 3.5Z" fill="white"/>
<path d="M14.75 5H5.25C4.284 5 3.5 5.784 3.5 6.75V13.25C3.5 14.216 4.284 15 5.25 15H14.75C15.716 15 16.5 14.216 16.5 13.25V6.75C16.5 5.784 15.716 5 14.75 5Z" fill="black"/>
</svg>
